Papirus/48x48/applets/touchpad.svg

<?xml version="1.0" encoding="UTF-8" standalone="no"?>
<svg id="svg2817" xmlns:rdf="http://www.w3.org/1999/02/22-rdf-syntax-ns#" xmlns="http://www.w3.org/2000/svg" height="48" width="48" version="1.0" xmlns:cc="http://creativecommons.org/ns#" xmlns:dc="http://purl.org/dc/elements/1.1/">
 <metadata id="metadata57">
  <rdf:RDF>
   <cc:Work rdf:about="">
    <dc:format>image/svg+xml</dc:format>
    <dc:type rdf:resource="http://purl.org/dc/dcmitype/StillImage"/>
    <dc:title/>
   </cc:Work>
  </rdf:RDF>
 </metadata>
 <rect id="rect4203" ry="2" rx="2" transform="matrix(0,-1,-1,0,0,0)" height="40" width="40" y="-44" x="-44" fill="#5d5d5d"/>
 <path id="rect4592" opacity=".1" fill="#fff" d="m6 4c-1.108 0-2 0.892-2 2v1c0-1.108 0.892-2 2-2h36c1.108 0 2 0.892 2 2v-1c0-1.108-0.892-2-2-2h-36z"/>
 <rect id="rect4186" opacity=".3" rx="2" ry="2" height="10" width="18" y="32" x="5"/>
 <rect id="rect4188" opacity=".3" rx="2" ry="2" height="10" width="18" y="32" x="25"/>
 <rect id="rect4190" opacity=".3" height="1" width="6" y="10" x="37"/>
 <rect id="rect4192" opacity=".3" height="1" width="6" y="13" x="37"/>
 <rect id="rect4194" opacity=".3" height="1" width="6" y="16" x="37"/>
 <rect id="rect4204" opacity=".3" height="1" width="6" y="19" x="37"/>
 <rect id="rect4206" opacity=".3" height="1" width="6" y="22" x="37"/>
 <rect id="rect4208" opacity=".3" height="1" width="6" y="25" x="37"/>
 <path id="rect4182" opacity=".2" d="m4 42v1c0 1.108 0.892 2 2 2h36c1.108 0 2-0.892 2-2v-1c0 1.108-0.892 2-2 2h-36c-1.108 0-2-0.892-2-2z"/>
</svg>

<?xml version="1.0" encoding="UTF-8" standalone="no"?>
<svg
   xmlns:dc="http://purl.org/dc/elements/1.1/"
   xmlns:cc="http://creativecommons.org/ns#"
   xmlns:rdf="http://www.w3.org/1999/02/22-rdf-syntax-ns#"
   xmlns:svg="http://www.w3.org/2000/svg"
   xmlns="http://www.w3.org/2000/svg"
   version="1.0"
   width="48"
   height="48"
   id="svg2817">
  <defs
     id="defs18" />
  <metadata
     id="metadata57">
    <rdf:RDF>
      <cc:Work
         rdf:about="">
        <dc:format>image/svg+xml</dc:format>
        <dc:type
           rdf:resource="http://purl.org/dc/dcmitype/StillImage" />
        <dc:title></dc:title>
      </cc:Work>
    </rdf:RDF>
  </metadata>
  <rect
     x="-44"
     y="-44"
     width="40"
     height="40"
     transform="matrix(0,-1,-1,0,0,0)"
     rx="2"
     ry="2"
     id="rect4203"
     style="fill:#5d5d5d" />
  <path
     d="M 6,4 C 4.892,4 4,4.892 4,6 L 4,7 C 4,5.892 4.892,5 6,5 l 36,0 c 1.108,0 2,0.892 2,2 L 44,6 C 44,4.892 43.108,4 42,4 L 6,4 Z"
     id="rect4592"
     style="opacity:0.1;fill:#ffffff" />
  <rect
     id="rect4186"
     rx="2"
     ry="2"
     height="10"
     width="18"
     y="32"
     x="5"
     style="opacity:0.3" />
  <rect
     id="rect4188"
     rx="2"
     ry="2"
     height="10"
     width="18"
     y="32"
     x="25"
     style="opacity:0.3" />
  <rect
     id="rect4190"
     height="1"
     width="6"
     y="10"
     x="37"
     style="opacity:0.3" />
  <rect
     id="rect4192"
     height="1"
     width="6"
     y="13"
     x="37"
     style="opacity:0.3" />
  <rect
     id="rect4194"
     height="1"
     width="6"
     y="16"
     x="37"
     style="opacity:0.3" />
  <rect
     id="rect4204"
     height="1"
     width="6"
     y="19"
     x="37"
     style="opacity:0.3" />
  <rect
     id="rect4206"
     height="1"
     width="6"
     y="22"
     x="37"
     style="opacity:0.3" />
  <rect
     id="rect4208"
     height="1"
     width="6"
     y="25"
     x="37"
     style="opacity:0.3" />
  <path
     d="m 4,42 0,1 c 0,1.108 0.892,2 2,2 l 36,0 c 1.108,0 2,-0.892 2,-2 l 0,-1 c 0,1.108 -0.892,2 -2,2 L 6,44 C 4.892,44 4,43.108 4,42 Z"
     id="rect4182"
     style="opacity:0.2" />
</svg>
